Origami/16x16/apps/io.elementary.code.svg

<svg width="16" height="16" version="1" xmlns="http://www.w3.org/2000/svg">
 <path d="M 14,15.2 V 0.8 C 14,0.3568 13.637625,0 13.1875,0 H 1.8125 C 1.362375,0 1,0.3568 1,0.8 V 15.2 C 1,15.6432 1.362375,16 1.8125,16 h 11.375 C 13.637625,16 14,15.6432 14,15.2 Z" style="fill:#cccccc"/>
 <path d="m6.0098828 5.0371096c-0.4445433 4.4e-6 -1.4583473 0.06519-1.6816407 0.2011719-0.2212475 0.1341521-0.328125 0.5766114-0.328125 0.8632812v0.7519532c0 0.1709036-0.075732 0.2904709-0.2109375 0.375-0.1331587 0.082697-0.5125046 0.3183612-0.7890625 0.3183593v0.9550782c0.5449213 1.2e-6 1 0.3535115 1 0.6953121v0.705079c0 0.3142365 0.1016857 0.7470565 0.3085938 0.8867175 0.2089542 0.141498 1.2279482 0.207262 1.7011719 0.210938v-0.962891c-0.2355885-0.00369-0.7627123-0.0478155-0.8671876-0.1249995-0.1044796-0.07718-0.1542968-0.18525-0.1542968-0.335937v-0.6210941c0-0.369366-0.5562674-0.8518123-1.0253905-0.9179688v-0.0390626c0.4691231-0.0716655 1.0253905-0.5132124 1.0253905-0.8789061v-0.6113282c0-0.1506844 0.049818-0.2508247 0.1542968-0.3261718 0.1065245-0.077177 0.633648-0.1255737 0.8671877-0.1347656zm2.9881642 0v1.0097656c0.2335399 0.00919 0.7606635 0.057589 0.8671875 0.1347656 0.104482 0.075347 0.1542965 0.1754874 0.1542965 0.3261718v0.6113282c0 0.3656937 0.558221 0.8072406 1.027344 0.8789062v0.039063c-0.469123 0.066156-1.027344 0.5486028-1.027344 0.9179688v0.6210935c0 0.1506871-0.049816 0.2587571-0.1542965 0.3359371-0.104475 0.077188-0.6315985 0.1212996-0.8671875 0.1249996v0.962891c0.4732239-0.0037 1.49417-0.06944 1.703125-0.210938 0.206908-0.139661 0.306641-0.572481 0.306641-0.8867176v-0.705079c0-0.3418006 0.457032-0.6953108 1.001953-0.6953121v-0.9550781c-0.276558 1.9e-6 -0.657857-0.2356623-0.791016-0.3183594-0.1352-0.084529-0.210937-0.2040964-0.210937-0.375v-0.7519531c0-0.2866697-0.104925-0.7291291-0.326172-0.8632812-0.223294-0.1359819-1.239051-0.2011675-1.683594-0.2011719z" style="fill:#446f7d"/>
</svg>

<svg xmlns="http://www.w3.org/2000/svg" width="16" height="16" version="1">
 <path style="fill:#cccccc" d="M 14,15.2 V 0.8 C 14,0.3568 13.637625,0 13.1875,0 H 1.8125 C 1.362375,0 1,0.3568 1,0.8 V 15.2 C 1,15.6432 1.362375,16 1.8125,16 h 11.375 C 13.637625,16 14,15.6432 14,15.2 Z"/>
 <path style="fill:#446f7d" d="m 6.0098828,5.0371096 c -0.4445433,4.4e-6 -1.4583473,0.06519 -1.6816407,0.2011719 -0.2212475,0.1341521 -0.328125,0.5766114 -0.328125,0.8632812 v 0.7519532 c 0,0.1709036 -0.075732,0.2904709 -0.2109375,0.375 C 3.6560209,7.3112129 3.276675,7.5468771 3.0001171,7.5468752 v 0.9550782 c 0.5449213,1.2e-6 1,0.3535115 1,0.6953121 v 0.705079 c 0,0.3142365 0.1016857,0.7470565 0.3085938,0.8867175 C 4.5176651,10.93056 5.5366591,10.996324 6.0098828,11 V 10.037109 C 5.7742943,10.033419 5.2471705,9.9892935 5.1426952,9.9121095 5.0382156,9.8349295 4.9883984,9.7268595 4.9883984,9.5761725 V 8.9550784 c 0,-0.369366 -0.5562674,-0.8518123 -1.0253905,-0.9179688 V 7.998047 C 4.432131,7.9263815 4.9883984,7.4848346 4.9883984,7.1191409 V 6.5078127 c 0,-0.1506844 0.049818,-0.2508247 0.1542968,-0.3261718 0.1065245,-0.077177 0.633648,-0.1255737 0.8671877,-0.1347656 z m 2.9881642,0 v 1.0097656 c 0.2335399,0.00919 0.7606635,0.057589 0.8671875,0.1347656 0.104482,0.075347 0.1542965,0.1754874 0.1542965,0.3261718 v 0.6113282 c 0,0.3656937 0.558221,0.8072406 1.027344,0.8789062 V 8.03711 c -0.469123,0.066156 -1.027344,0.5486028 -1.027344,0.9179688 v 0.6210935 c 0,0.1506871 -0.049816,0.2587571 -0.1542965,0.3359371 C 9.7607595,9.9892974 9.233636,10.033409 8.998047,10.037109 V 11 c 0.4732239,-0.0037 1.49417,-0.06944 1.703125,-0.210938 0.206908,-0.139661 0.306641,-0.572481 0.306641,-0.8867176 v -0.705079 c 0,-0.3418006 0.457032,-0.6953108 1.001953,-0.6953121 V 7.5468752 c -0.276558,1.9e-6 -0.657857,-0.2356623 -0.791016,-0.3183594 -0.1352,-0.084529 -0.210937,-0.2040964 -0.210937,-0.375 V 6.1015627 c 0,-0.2866697 -0.104925,-0.7291291 -0.326172,-0.8632812 C 10.458347,5.1022996 9.44259,5.037114 8.998047,5.0371096 Z"/>
</svg>
